X:1
T:Mullinavat, The Reel of
M:C|
L:1/8
R:Reel
K:D
%%printtempo 0
Q:160
ef|\
"Em"gfed BAGF| GBAG E2B,E|GEB,E GABd| "Bm"eBBA B2 ef|
"Em"gfed BAGF| GBAG E2EF| G2 GF GABA|"D"(3Bcd ed"Em"e2 ef||
"Em"gfed BAGF| GBAG E2B,E|GEB,E GABd| "Bm"eBBA B2 ef|
"Em"g2 fg edB=c|BAGF E2 EF|G2 GF GABA|"Bm"(3Bcd ed "Em"e2||
|:ef|\
"Em"geBe gebe |"D"afdf afdf|"Em"geBe gebe |"D"afdf "Em"feef|
"Em"geBe gebe |"D"afdf a4|"Em"bgaf gfed|"D"Beed "Em"e2:|
